X:1
T:Behold the path that mortals tread
T:Behold the path that mortals tread - Eastbourn (Thomas Clark)
C:Thomas Clark
Z:p15, A Second Set of
Z:Psalm and Hymn Tunes,
Z:London: (1806)
%%score [ 1 2 3 4 ]
L:1/8
M:4/4
K:Dmin
V:1 treble nm="SOPRANO" snm="S."
V:2 treble nm="ALTO" snm="A."
V:3 treble-8 transpose=-12 nm="TENOR" snm="T."
V:4 bass nm="BASS" snm="B."
V:1
 z4 D4 | A6 A2 | d4 f4 | e4 d4 | (d4 ^c4) | d4 A3 G | F6 G2 | F4 E4 | D8 |: z2 A2 A2 A2 | d6 d2 | %11
w: From|vi- tal|air, from|chear- ful|light, _|To the cold|grave’s per-|pet- ual|night,|From scenes of|du- ty,|
w: Be-|hold the|path that|mor- tals|tread, _|Down to the|re- gions|of the|dead;|Nor will the|flee- ting|
w: Our|kind- red|and our|friends are|gone; _|Know, O my|soul, this|doom thine|own;|Fee- ble as|theirs my|
 (e2 f2 g2) f2 | (f4 !fermata!e2) e2 | f4 (e2 d2) | ^c4 d4 | A4 G4 | A4 z2 A2 | (d2 ^c2) (d2 e2) | %18
w: means _ _ of|grace, _ Must|I to _|God’s tri-|bu- nal|pass, must|I _ to _|
w: mo- * * ments|stay, _ Nor|can we _|mea- sure|back our|way, nor|can _ we _|
w: mor- * * tal|frame, _ The|same my _|way, my|house the|same, the|same _ my _|
 f4 (e2 d2) | d4 ^c4 | d8 :| %21
w: God’s tri- *|bu- nal|pass.|
w: mea- sure _|back our|way.|
w: way, my _|house the|same.|
V:2
 z4 D4 | F6 A2 | A4 A4 | G4 F4 | (F4 E4) | D4 D3 ^C | D6 D2 | D4 ^C4 | D8 |: z4 z2 E2 | F2 F2 A4- | %11
w: From|vi- tal|air, from|chear- ful|light, _|To the cold|grave’s per-|pet- ual|night,|From|scenes of du-|
w: Be-|hold the|path that|mor- tals|tread, _|Down to the|re- gions|of the|dead;|Nor|will the flee-|
w: Our|kind- red|and our|friends are|gone; _|Know, O my|soul, this|doom thine|own;|Fee-|ble as theirs|
 A2 A2 B2 B2 | !fermata!A6 A2 | A4 G4 | E4 F4 | F4 G4 | E4 z2 E2 | (F2 A2) A4 | A4 G4 | F4 E4 | %20
w: * ty, means of|grace, Must|I to|God’s tri-|bu- nal|pass, must|I _ to|God’s tri-|bu- nal|
w: * ting mo- ments|stay, Nor|can we|mea- sure|back our|way, nor|can _ we|mea- sure|back our|
w: _ my mor- tal|frame, The|same my|way, my|house the|same, the|same _ my|way, my|house the|
 D8 :| %21
w: pass.|
w: way.|
w: same.|
V:3
 z4 A4 | d6 ^c2 | d4 d4 | B4 B4 | A8 | A4 A3 A | A6 B2 | A4 A4 | A8 |: z4 z2 A2 | A2 A2 d2 d2 | %11
w: From|vi- tal|air, from|chear- ful|light,|To the cold|grave’s per-|pet- ual|night,|From|scenes of du- ty,|
w: Be-|hold the|path that|mor- tals|tread,|Down to the|re- gions|of the|dead;|Nor|will the flee- ting|
w: Our|kind- red|and our|friends are|gone;|Know, O my|soul, this|doom thine|own;|Fee-|ble as theirs my|
 (^c2 d2 e2) d2 | (d4 !fermata!^c2) c2 | d4 B4 | A4 A4 | d6 d2 | ^c4 z2 c2 | (d2 e2) (f2 e2) | %18
w: means _ _ of|grace, _ Must|I to|God’s tri-|bu- nal|pass, must|I _ to _|
w: mo- * * ments|stay, _ Nor|can we|mea- sure|back our|way, nor|can _ we _|
w: mor- * * tal|frame, _ The|same my|way, my|house the|same, the|same _ my _|
 d4 B4 | A4 A4 | A8 :| %21
w: God’s tri-|bu- nal|pass.|
w: mea- sure|back our|way.|
w: way, my|house the|same.|
V:4
 z4 D,4 | D,6"^´4" E,2 |"^6" F,4 D,4 |"^6" G,4"^7" G,4 |"^64""^5#" A,8 |"^6" F,4"^6" F,3"^´43" E, | %6
w: From|vi- tal|air, from|chear- ful|light,|To the cold|
w: Be-|hold the|path that|mor- tals|tread,|Down to the|
w: Our|kind- red|and our|friends are|gone;|Know, O my|
 D,6 G,2 |"^64" A,4"^5#" A,,4 | D,8 |: z8 | z2 D,2 D,2 D,2 |"^#" A,2 D2"^6" G,2"^7" G,2 | %12
w: grave’s per-|pet- ual|night,||From scenes of|du- ty, means of|
w: re- gions|of the|dead;||Nor will the|flee- ting mo- ments|
w: soul, this|doom thine|own;||Fee- ble as|theirs my mor- tal|
"^64" !fermata!A,6"^5#""^#" A,2 | D,4 G,4 | %14
w: grace, Must|I to|
w: stay, Nor|can we|
w: frame, The|same my|
"^Notes:The order of staves in the source is Tenor - [Alto] - Air - [Bass], with the alto part printed in the treble clef an octave abovesounding pitch.Only the first verse of text is given in the source: three selected subsequent verses have here been added editorially.The soprano D and alto F on beat 1 of bar 5 and the soprano F and tenor D on beat 1 of bar 13 are given as small gracenotes in the source: these have been expanded editorially, with their respective time values taken in each case from thefollowing note to which they are slurred.The tune name is given as ‘EASTBOURN’ at the top of p15 of Clark’s A Second Set of Psalm and Hymn Tunes, abovethe tune, but as ‘Eastbourne’ in the book’s index.""^#" A,4"^6" F,4 | %15
w: God’s tri-|
w: mea- sure|
w: way, my|
"^7""^6" B,6 B,2 |"^#" A,4 z2"^Ä2" G,2 |"^6" (F,2"^´4" E,2) (D,2"^6" ^C,2) | D,4 G,4 | %19
w: bu- nal|pass, must|I _ to _|God’s tri-|
w: back our|way, nor|can _ we _|mea- sure|
w: house the|same, the|same _ my _|way, my|
"^64" A,4"^5#" A,,4 | D,8 :| %21
w: bu- nal|pass.|
w: back our|way.|
w: house the|same.|

